X:1
T:[ID 2-43]
T:[ID 2-43]
T:Bezeichnung standardisiert: Polonaise Poloniose 9. In dieser Quelle auch als: Polonaise
T:Urheber unbekannt Datum in der hier transkribierten schriftlichen Quelle: 1775
C:Urheber unbekannt
C:Datum in der hier transkribierten schriftlichen Quelle: 1775
L:1/8
M:3/4
K:D
V:1 treble 
V:1
 FF/A/ d2 d2 | c/e/d/c/ dAFD | F/G/d/e/ f2 f2 | e/d/e/c/ d2 d2 :: dffddF | eg/e/ c2 c2 | ceecce | %7
 df/d/ F2 F2 | FFFddF | Ccceec | Fddfec | A/G/F/E/ F2 F2 :| %12

